Numix/24/status/state-sync.svg

<?xml version="1.0" encoding="UTF-8" standalone="no"?>
<!-- Created with Inkscape (http://www.inkscape.org/) -->

<svg
   xmlns:dc="http://purl.org/dc/elements/1.1/"
   xmlns:cc="http://creativecommons.org/ns#"
   xmlns:rdf="http://www.w3.org/1999/02/22-rdf-syntax-ns#"
   xmlns:svg="http://www.w3.org/2000/svg"
   xmlns="http://www.w3.org/2000/svg"
   xmlns:sodipodi="http://sodipodi.sourceforge.net/DTD/sodipodi-0.dtd"
   xmlns:inkscape="http://www.inkscape.org/namespaces/inkscape"
   id="svg9065"
   version="1.1"
   inkscape:version="0.91 r"
   width="24"
   height="24"
   sodipodi:docname="state-sync.svg">
  <metadata
     id="metadata9071">
    <rdf:RDF>
      <cc:Work
         rdf:about="">
        <dc:format>image/svg+xml</dc:format>
        <dc:type
           rdf:resource="http://purl.org/dc/dcmitype/StillImage" />
        <dc:title />
      </cc:Work>
    </rdf:RDF>
  </metadata>
  <defs
     id="defs9069" />
  <sodipodi:namedview
     pagecolor="#ffffff"
     bordercolor="#666666"
     borderopacity="1"
     objecttolerance="10"
     gridtolerance="10"
     guidetolerance="10"
     inkscape:pageopacity="0"
     inkscape:pageshadow="2"
     inkscape:window-width="1197"
     inkscape:window-height="715"
     id="namedview9067"
     showgrid="true"
     inkscape:zoom="16"
     inkscape:cx="4.3777058"
     inkscape:cy="6.2837161"
     inkscape:window-x="81"
     inkscape:window-y="24"
     inkscape:window-maximized="0"
     inkscape:current-layer="svg9065">
    <inkscape:grid
       type="xygrid"
       id="grid3010" />
  </sodipodi:namedview>
  <g
     transform="matrix(0.06584938,0,0,0.06869972,-10.839726,3.0967945)"
     id="g3003"
     style="fill:#ececec;fill-opacity:1;stroke:none">
    <path
       style="fill:#ececec;fill-opacity:1;stroke:none"
       d="M 10.1875,4 C 9.2200956,4 8.3990682,4.5886096 8,5.4375 7.7697724,5.2424181 7.4759609,5.125 7.15625,5.125 6.4168238,5.125 5.8125,5.7598171 5.8125,6.53125 c 0,0.2987722 0.096865,0.5853905 0.25,0.8125 -0.5177565,0.3443344 -0.9036631,0.8776712 -1.09375,1.5 C 4.8764994,8.8327661 4.7825686,8.8125 4.6875,8.8125 3.3330975,8.8125 2.25,9.9619712 2.25,11.375 c 0,1.413029 1.0830975,2.5625 2.4375,2.5625 0.4329647,0 0.8332229,-0.105328 1.1875,-0.3125 C 5.4728443,12.839845 5.25,11.942769 5.25,11 5.25,7.8243645 7.824363,5.25 11,5.25 c 0.475178,0 0.933357,0.078831 1.375,0.1875 C 11.977684,4.5837923 11.160245,4 10.1875,4 Z M 16.25,8.625 c 0.326298,0.7217013 0.5,1.531472 0.5,2.375 0,1.058547 -0.282247,2.054398 -0.78125,2.90625 0.479068,-0.115103 0.908796,-0.342591 1.25,-0.6875 0.254732,0.368125 0.656558,0.59375 1.125,0.59375 0.77463,0 1.40625,-0.62934 1.40625,-1.4375 0,-0.80816 -0.63162,-1.46875 -1.40625,-1.46875 -0.119612,0 -0.232904,0.0019 -0.34375,0.03125 C 17.889206,9.862027 17.194163,8.9714049 16.25,8.625 Z"
       transform="matrix(15.186172,0,0,14.5561,179.80011,-15.961411)"
       id="circle265"
       inkscape:connector-curvature="0" />
  </g>
  <path
     style="color:#000000;font-style:normal;font-variant:normal;font-weight:normal;font-stretch:normal;font-size:medium;line-height:normal;font-family:Sans;-inkscape-font-specification:Sans;text-indent:0;text-align:start;text-decoration:none;text-decoration-line:none;letter-spacing:normal;word-spacing:normal;text-transform:none;direction:ltr;block-progression:tb;writing-mode:lr-tb;baseline-shift:baseline;text-anchor:start;display:inline;overflow:visible;visibility:visible;fill:#ececec;fill-opacity:1;fill-rule:nonzero;stroke:none;stroke-width:2.5999999;marker:none;enable-background:accumulate"
     d="m 12,8.4065 c -2.5278899,0 -4.5937498,2.06586 -4.5937498,4.59375 0,1.310875 0.5486152,2.503537 1.4375,3.34375 L 10.46875,14.969 C 9.878266,14.508647 9.4687502,13.814404 9.4687502,13.00025 9.4687502,11.596341 10.59609,10.469 12,10.469 c 0.317429,0 0.626934,0.05082 0.90625,0.15625 l 0.375,-2 C 12.87291,8.5055014 12.445892,8.4065 12,8.4065 Z m 3.15625,1.25 -1.625,1.375 c 0.592335,0.462204 1,1.154598 1,1.96875 0,1.403914 -1.127336,2.53125 -2.53125,2.53125 -0.317878,0 -0.627125,-0.0823 -0.90625,-0.1875 l -0.375,2.0625 c 0.407007,0.119007 0.837355,0.1875 1.28125,0.1875 2.527892,0 4.59375,-2.065858 4.59375,-4.59375 0,-1.310874 -0.550092,-2.505013 -1.4375,-3.34375 z"
     id="path2991"
     inkscape:connector-curvature="0" />
</svg>

<!-- Created with Inkscape (http://www.inkscape.org/) -->
<svg xmlns="http://www.w3.org/2000/svg" viewBox="0 0 24 24">
 <g transform="matrix(0.06584938,0,0,0.06869972,-10.839726,3.0967945)" style="fill:#ececec;fill-opacity:1;stroke:none">
  <path d="m 10.188 4 c -0.967 0 -1.788 0.589 -2.188 1.438 -0.23 -0.195 -0.524 -0.313 -0.844 -0.313 -0.739 0 -1.344 0.635 -1.344 1.406 c 0 0.299 0.097 0.585 0.25 0.813 -0.518 0.344 -0.904 0.878 -1.094 1.5 c -0.092 -0.011 -0.186 -0.031 -0.281 -0.031 -1.354 0 -2.438 1.149 -2.438 2.563 c 0 1.413 1.083 2.563 2.438 2.563 0.433 0 0.833 -0.105 1.188 -0.313 c -0.402 -0.785 -0.625 -1.682 -0.625 -2.625 0 -3.176 2.574 -5.75 5.75 -5.75 c 0.475 0 0.933 0.079 1.375 0.188 c -0.397 -0.854 -1.215 -1.438 -2.188 -1.438 m 6.06 4.625 c 0.326 0.722 0.5 1.531 0.5 2.375 0 1.059 -0.282 2.054 -0.781 2.906 0.479 -0.115 0.909 -0.343 1.25 -0.688 0.255 0.368 0.657 0.594 1.125 0.594 0.775 0 1.406 -0.629 1.406 -1.438 0 -0.808 -0.632 -1.469 -1.406 -1.469 -0.12 0 -0.233 0.002 -0.344 0.031 c -0.111 -1.075 -0.806 -1.966 -1.75 -2.313" transform="matrix(15.186172,0,0,14.5561,179.80011,-15.961411)"/>
 </g>
 <path d="m 12 8.407 c -2.528 0 -4.594 2.066 -4.594 4.594 0 1.311 0.549 2.504 1.437 3.344 l 1.625 -1.375 c -0.59 -0.46 -1 -1.155 -1 -1.969 0 -1.404 1.127 -2.531 2.531 -2.531 c 0.317 0 0.627 0.051 0.906 0.156 l 0.375 -2 c -0.408 -0.12 -0.835 -0.219 -1.281 -0.219 m 3.156 1.25 -1.625 1.375 c 0.592 0.462 1 1.155 1 1.969 0 1.404 -1.127 2.531 -2.531 2.531 -0.318 0 -0.627 -0.082 -0.906 -0.188 l -0.375 2.063 c 0.407 0.119 0.837 0.188 1.281 0.188 2.528 0 4.594 -2.066 4.594 -4.594 0 -1.311 -0.55 -2.505 -1.438 -3.344 z" style="visibility:visible;fill:#ececec;fill-opacity:1;stroke:none;display:inline;color:#000;fill-rule:nonzero"/>
</svg>
